icons/System/eye-off-fill.svg

<svg viewBox="0 0 24 24" xmlns="http://www.w3.org/2000/svg"><path d="M4.52047 5.93457L1.39366 2.80777L2.80788 1.39355L22.6069 21.1925L21.1927 22.6068L17.8827 19.2968C16.1814 20.3755 14.1638 21.0002 12.0003 21.0002C6.60812 21.0002 2.12215 17.1204 1.18164 12.0002C1.61832 9.62282 2.81932 7.5129 4.52047 5.93457ZM14.7577 16.1718L13.2937 14.7078C12.902 14.8952 12.4634 15.0002 12.0003 15.0002C10.3434 15.0002 9.00026 13.657 9.00026 12.0002C9.00026 11.537 9.10522 11.0984 9.29263 10.7067L7.82866 9.24277C7.30514 10.0332 7.00026 10.9811 7.00026 12.0002C7.00026 14.7616 9.23884 17.0002 12.0003 17.0002C13.0193 17.0002 13.9672 16.6953 14.7577 16.1718ZM7.97446 3.76015C9.22127 3.26959 10.5793 3.00016 12.0003 3.00016C17.3924 3.00016 21.8784 6.87992 22.8189 12.0002C22.5067 13.6998 21.8038 15.2628 20.8068 16.5925L16.947 12.7327C16.9821 12.4936 17.0003 12.249 17.0003 12.0002C17.0003 9.23873 14.7617 7.00016 12.0003 7.00016C11.7514 7.00016 11.5068 7.01833 11.2677 7.05343L7.97446 3.76015Z"/></svg>

<svg xmlns="http://www.w3.org/2000/svg" viewBox="0 0 24 24">
    <g>
        <path fill="none" d="M0 0h24v24H0z"/>
        <path d="M4.52 5.934L1.393 2.808l1.415-1.415 19.799 19.8-1.415 1.414-3.31-3.31A10.949 10.949 0 0 1 12 21c-5.392 0-9.878-3.88-10.819-9a10.982 10.982 0 0 1 3.34-6.066zm10.237 10.238l-1.464-1.464a3 3 0 0 1-4.001-4.001L7.828 9.243a5 5 0 0 0 6.929 6.929zM7.974 3.76C9.221 3.27 10.58 3 12 3c5.392 0 9.878 3.88 10.819 9a10.947 10.947 0 0 1-2.012 4.592l-3.86-3.86a5 5 0 0 0-5.68-5.68L7.974 3.761z"/>
    </g>
</svg>
